!!!!SEGMENT: pl-kk--kk-i-286--001_anonim--sancte-paule-apostole.krn
!!!cenid: 17xx:2100
!!!COM: Anonim
!!!COM-rismID: pe30004985
!!!CDT:
!!!CNT:
!!!OTL: Sancte paule apostole
!!!PDT:
!!!AGN: Sacred
!!!SMS-siglum: PL-Kk
!!!SMS-shelfmark: Kk.I.286
!!!SMS-shelfwork: 001 W
!!!SMS-variant:
!!!SMS-altvar:
!!!NIFC-rismSourceID: 1001147622
!!!NIFC-islandoraID: pl-kk:4983
!!!URL-pdf-islandora: https://repozytorium.nifc.pl/islandora/object/pl-kk%3A4983/datastream/PDF/view
!!!URL-scan: https://polish.musicsources.pl/pl/lokalizacje/galeria/rekopisy/5904 @EN{Scan on Polish Music Herritage in Open Access Website} @PL{Skany w portalu Dziedzictwo Muzyki Polskiej w otwartym dostępie}
!!!ONB-nifc: UWAGA: utwory w zbiorze: 1. Sancte paule apostole, 2. Simile est regnum
!!!AIN: 1 alto 1 bass 2 tenor 1 vox
!!!key:
**kern	**text	**kern	**text	**text	**kern	**text	**kern	**text	**text	**kern	**text
*part5	*part5	*part4	*part4	*part4	*part3	*part3	*part2	*part2	*part2	*part1	*part1
*staff5	*staff5	*staff4	*staff4	*staff4	*staff3	*staff3	*staff2	*staff2	*staff2	*staff1	*staff1
*Ibass	*	*Itenor	*	*	*Itenor	*	*Ialto	*	*	*Ivox	*
*I"[Bassus]	*	*I"[Tenore II]	*	*	*I"[Tenore I]	*	*I"[Altus]	*	*	*I"[Cantus]	*
*I'[B]	*	*I'[T II]	*	*	*I'[T I]	*	*I'[A]	*	*	*I'[S]	*
*clefF4	*	*clefC4	*	*	*clefC4	*	*clefC3	*	*	*clefC1	*
*k[]	*	*k[]	*	*	*k[]	*	*k[]	*	*	*k[]	*
*a:	*	*a:	*	*	*a:	*	*a:	*	*	*a:	*
*M2/1	*	*M2/1	*	*	*M2/1	*	*M2/1	*	*	*M2/1	*
*met(c|)	*	*met(c|)	*	*	*met(c|)	*	*met(c|)	*	*	*met(c|)	*
=1	=1	=1	=1	=1	=1	=1	=1	=1	=1	=1	=1
!LO:TX:a:i:t=De S(an)cto Paulo Ap(os)t(ol)o.	!	!LO:TX:a:i:t=De S(an)cto Paulo Ap(os)t(ol)o.	!	!	!LO:TX:a:i:t=De S(an)cti Pauli ap(os)t(ol)i	!	!LO:TX:a:i:t=De S(an)cto Paulo Ap(os)t(ol)o.	!	!	!LO:TX:a:i:t=De S(an)cto Paulo Ap(os)t(ol)o.	!
00r	.	00r	.	.	1E/	San-	0c\	San-	.	1r	.
.	.	.	.	.	2E/	-cte	.	.	.	1e/	San-
!	!	!	!	!	!LO:TX:t=P:problem=kreska pseudotaktowa	!	!	!	!	!	!
.	.	.	.	.	2E/	Pau-	.	.	.	.	.
=2-	=2-	=2-	=2-	=2-	=2-	=2-	=2-	=2-	=2-	=2-	=2-
.	.	.	.	.	2.c\	-le	2A/	-cte	.	2e/	-cte
!	!	!	!	!	!	!	!LO:TX:t=P:problem=kreska pseudotaktowa	!	!	!LO:TX:t=P:problem=kreska pseudotaktowa	!
.	.	.	.	.	.	.	2A/	Pau-	.	2e/	Pau-
.	.	.	.	.	4c\	A-	.	.	.	.	.
.	.	.	.	.	2c\	-po-	2e\	-le	.	2.g/	-le
!	!	!	!	!	!LO:TX:t=P:problem=kreska pseudotaktowa	!	!	!	!	!	!
.	.	.	.	.	2c\	-ſto-	2e\	A-	.	.	.
!	!	!	!	!	!	!	!	!	!	!LO:TX:t=P:problem=kreska pseudotaktowa	!
.	.	.	.	.	.	.	.	.	.	4g/	A-
=3-	=3-	=3-	=3-	=3-	=3-	=3-	=3-	=3-	=3-	=3-	=3-
00r	.	0r	.	.	2B,<\	-le	2d\	-po-	.	2g/	-po-
!	!	!	!	!	!	!	!LO:TX:t=P:problem=kreska pseudotaktowa	!	!	!	!
.	.	.	.	.	2e\	prae-	2c/	-ſto-	.	2g/	-ſto-
.	.	.	.	.	2d\	-di-	2f\	-le	.	2a\	-le
!	!	!	!	!	!LO:TX:t=P:problem=kreska pseudotaktowa	!	!	!	!	!LO:TX:t=P:problem=kreska pseudotaktowa	!
.	.	.	.	.	2A/	-ca-	2e\	prae-	.	2cc\	prae-
=4-	=4-	=4-	=4-	=4-	=4-	=4-	=4-	=4-	=4-	=4-	=4-
!LO:TX:t=P:problem=kreska pseudotaktowa	!	!LO:TX:t=P:problem=kreska pseudotaktowa	!	!	!	!	!	!	!	!	!
.	.	1r	.	.	2.d\	.	2f\	-di-	.	4b\	-di-
.	.	.	.	.	.	.	.	.	.	4a\	.
!	!	!	!	!	!	!	!LO:TX:t=P:problem=kreska pseudotaktowa	!	!	!	!
.	.	.	.	.	.	.	2f\	-ca-	.	1a\	-ca-
.	.	.	.	.	4c\	.	.	.	.	.	.
.	.	1E/	San-	.	4B\	.	1e\	-tor	.	.	.
.	.	.	.	.	4A\	.	.	.	.	.	.
!	!	!	!	!	!LO:TX:t=P:problem=kreska pseudotaktowa	!	!	!	!	!	!
!	!	!	!	!	!LO:TX:a:t=8	!	!	!	!	!LO:TX:t=P:problem=kreska pseudotaktowa	!
.	.	.	.	.	2B\	-tor	.	.	.	2g#X/	.
=5-	=5-	=5-	=5-	=5-	=5-	=5-	=5-	=5-	=5-	=5-	=5-
!	!	!	!	!	!	!	!LO:TX:t=P:problem=kreska pseudotaktowa	!	!	!LO:TX:t=P:problem=kreska pseudotaktowa	!
1AA/	San-	2E/	-cte	.	2c\	Ven-	1e\	Ve-	.	0a\	-tor
!	!	!LO:TX:t=P:problem=kreska pseudotaktowa	!	!	!	!	!	!	!	!	!
.	.	2E/	Pau-	.	2c\	-ri-	.	.	.	.	.
2AA/	-cte	2.c\	-le	.	2A/	-ta-	2e\	-ri-	.	.	.
!LO:TX:t=P:problem=kreska pseudotaktowa	!	!	!	!	!LO:TX:t=P:problem=kreska pseudotaktowa	!	!	!	!	!	!
2AA/	Pau-	.	.	.	2A/	-tis	(1f\	-ta-	.	.	.
.	.	4c\	a-	.	.	.	.	.	.	.	.
=6-	=6-	=6-	=6-	=6-	=6-	=6-	=6-	=6-	=6-	=6-	=6-
2.C/	-le	2c\	-po-	.	2G/	San-	.	.	.	0r	.
!	!	!LO:TX:t=P:problem=kreska pseudotaktowa	!	!	!LO:TX:a:t=Converſione et\nCommenovatore	!	!LO:TX:t=P:problem=kreska pseudotaktowa	!	!	!	!
.	.	2c\	-ſto-	.	2G/	-cte	2e\)	-[[tis]]-	.	.	.
4C/	a-	.	.	.	.	.	.	.	.	.	.
2GG/	-po-	2B\	-le	.	2G/	Pau-	2d\	-tis	.	.	.
!	!	!	!	!	!LO:TX:t=P:problem=kreska pseudotaktowa	!	!	!	!	!	!
!LO:TX:t=P:problem=kreska pseudotaktowa	!	!	!	!	!LO:TX:a:t=12	!	!	!	!	!	!
2GG/	-ſto-	2B\	Prae-	.	[2d\	-le	2g\	S(an)-	.	.	.
=7-	=7-	=7-	=7-	=7-	=7-	=7-	=7-	=7-	=7-	=7-	=7-
2D/	-le	2A/	-di-	.	2d\]	.	2f\	-cté	.	1r	.
!LO:TX:t=P:problem=kreska pseudotaktowa	!	!LO:TX:t=P::problem=kreska pseudotaktowa&colon;między nutą a kropką	!	!	!LO:TX:t=P:problem=kreska pseudotaktowa	!	!LO:TX:t=P:problem=kreska pseudotaktowa	!	!	!	!
2E\	prae-	2.c\	-ca-	.	2G/	A-	2e\	Pau-	.	.	.
2F\	-di-	.	.	.	2A/	-po-	1c\	-le	.	2re	.
.	.	4B\	.	.	.	.	.	.	.	.	.
!	!	!	!	!	!	!	!	!	!	!LO:TX:t=P:problem=kreska pseudotaktowa	!
*	*	*	*	*	*	*	*	*	*	*	*ij
4F\	-ca-	4A\	.	.	1c\	.	.	.	.	2f/	San-
!LO:TX:t=P:problem=kreska pseudotaktowa	!	!	!	!	!	!	!	!	!	!	!
4E\	.	4G/	.	.	.	.	.	.	.	.	.
=8-	=8-	=8-	=8-	=8-	=8-	=8-	=8-	=8-	=8-	=8-	=8-
!	!	!LO:TX:t=P:problem=kreska pseudotaktowa	!	!	!	!	!	!	!	!	!
1D\	.	1F/	.	.	.	.	2d\	A-	.	2f/	-cte
*	*	*	*	*	*custos:c	*	*	*	*	*	*
!	!	!	!	!	!LO:TX:t=P:problem=kreska pseudotaktowa	!	!	!	!	!	!
!	!	!	!	!	!	!	!LO:TX:t=P:problem=kreska pseudotaktowa	!	!	!LO:TX:t=P:problem=kreska pseudotaktowa	!
.	.	.	.	.	2B\	-ſto:-	2f\	-po-	.	2d/	Pau-
!	!	!	!	!	!LO:LB:g=original	!	!	!	!	!	!
2C/	-tor	2G/	-tor	.	2c\	-le	2e\	-ſto-	.	1.gny\	-le
!LO:TX:t=P:problem=kreska pseudotaktowa	!	!LO:TX:t=P:problem=kreska pseudotaktowa	!	!	!	!	!	!	!	!	!
2C/	Ve-	2c\	Ve-	.	1G/	Prae-	2e\	-le	.	.	.
=9-	=9-	=9-	=9-	=9-	=9-	=9-	=9-	=9-	=9-	=9-	=9-
!LO:TX:t=P:problem=kreska pseudotaktowa	!	!	!	!	!	!	!	!	!	!	!
1D/ 1GG/	-ri-	2B\	-ri-	.	.	.	2.d\	prae-	.	.	.
!	!	!	!	!	!LO:TX:t=P:problem=kreska pseudotaktowa	!	!	!	!	!LO:TX:t=P:problem=kreska pseudotaktowa	!
.	.	2B\	-ta-	.	2G/	-di-	.	.	.	2g/	A-
!	!	!	!	!	!	!	!LO:TX:t=P:problem=kreska pseudotaktowa	!	!	!	!
.	.	.	.	.	.	.	4d\	-di-	.	.	.
2D/	-ta-	2A/	-tis	.	2F/	-ca-	2d\	-ca-	.	2a\	-po-
!LO:TX:t=P:problem=kreska pseudotaktowa	!	!LO:TX:t=P:problem=kreska pseudotaktowa	!	!	!LO:TX:t=P:problem=kreska pseudotaktowa	!	!	!	!	!	!
2AA/	-tis	2A/	San-	.	2E/	-tor	2c/	-tor	.	2a\	-ſto-
=10-	=10-	=10-	=10-	=10-	=10-	=10-	=10-	=10-	=10-	=10-	=10-
!	!	!	!	!	!	!	!LO:LB:g=original	!	!	!	!
4AA/	prae-	2A/	-cte	.	1e\	Prae-	4c\	Ve-	.	2cc\	-le
4BB/	.	.	.	.	.	.	4d\	.	.	.	.
!	!	!LO:TX:t=P:problem=kreska pseudotaktowa	!	!	!	!	!	!	!	!LO:TX:t=P:problem=kreska pseudotaktowa	!
4C/	.	2G/	a-	.	.	.	4e\	.	.	2cc\	prae-
!LO:TX:t=P:problem=kreska pseudotaktowa	!	!	!	!	!	!	!LO:TX:t=P:problem=kreska pseudotaktowa	!	!	!	!
4D\	.	.	.	.	.	.	4f\	.	.	.	.
4E\	.	2.G/	-po-	.	2e\	-di-	2.g\	.	.	2cc\	-di-
4F\	.	.	.	.	.	.	.	.	.	.	.
!LO:TX:t=P::problem=kreska pseudotaktowa&colon;między nutą a kropką	!	!	!	!	!LO:TX:t=P:problem=kreska pseudotaktowa	!	!	!	!	!	!
2.G\	.	.	.	.	2d\	-ca-	.	.	.	1b\	-ca-
.	.	4G/	-ſto-	.	.	.	8f\L	.	.	.	.
!	!	!	!	!	!	!	!LO:TX:t=P:problem=kreska pseudotaktowa	!	!	!	!
.	.	.	.	.	.	.	8e\J	.	.	.	.
=11-	=11-	=11-	=11-	=11-	=11-	=11-	=11-	=11-	=11-	=11-	=11-
.	.	2B\	-le	.	2G/	-tor	2d\	-ri-	.	.	.
4F\	.	.	.	.	.	.	.	.	.	.	.
*	*	*	*	*	*	*	*	*	*	*custos:cc	*
!	!	!LO:TX:t=P:problem=kreska pseudotaktowa	!	!	!	!	!	!	!	!	!
!	!	!LO:TX:a:t=a	!	!	!	!	!	!	!	!	!
4E\	.	2B\	prae-	.	2G/	Ve-	2e\	-ta-	.	1g\	-tor
*	*	*	*	*	*	*	*	*	*	*	*Xij
4D\	-di-	.	.	.	.	.	.	.	.	.	.
*	*	*custos:G	*	*	*	*	*	*	*	*	*
!	!	!	!	!	!	!	!LO:TX:t=P:problem=kreska pseudotaktowa	!	!	!	!
2C/	-ca-	2c\	-di-	.	2G/	-ri-	1e\	-tis	.	.	.
!	!	!LO:LB:g=original	!	!	!	!	!	!	!	!LO:LB:g=original	!
!LO:TX:t=P:problem=kreska pseudotaktowa	!	!LO:TX:t=P:problem=kreska pseudotaktowa	!	!	!	!	!	!	!	!LO:TX:t=P::problem=kreska pseudotaktowa&colon;między nutą a kropką	!
2C/	-tor	2G/	-ca-	.	2E/	-ta-	.	.	.	2.cc\	Ve-
=12-	=12-	=12-	=12-	=12-	=12-	=12-	=12-	=12-	=12-	=12-	=12-
!LO:LB:g=original	!	!	!	!	!LO:TX:t=P:problem=kreska pseudotaktowa	!	!	!	!	!	!
4AA/	Ve-	2c\	-tor	.	1A\	-tis	0e\	S(an)-	.	.	.
4BB/	.	.	.	.	.	.	.	.	.	4b\	-ri-
4C/	.	2c\	Ve-	.	.	.	.	.	.	1a\	-ta-
!LO:TX:t=P:problem=kreska pseudotaktowa	!	!	!	!	!	!	!	!	!	!	!
4AA/	ri-	.	.	.	.	.	.	.	.	.	.
1E\	-ta-	2B\	-ri-	.	2rD	.	.	.	.	.	.
!	!	!LO:TX:t=P:problem=kreska pseudotaktowa	!	!	!	!	!	!	!	!	!
!	!	!	!	!	!	!	!	!	!	!LO:TX:t=P:problem=kreska pseudotaktowa	!
.	.	2B\	-ta-	.	2E/	S(an)-	.	.	.	2g#X/	.
=13-	=13-	=13-	=13-	=13-	=13-	=13-	=13-	=13-	=13-	=13-	=13-
!LO:TX:t=P:problem=kreska pseudotaktowa	!	!LO:TX:t=P:problem=kreska pseudotaktowa	!	!	!	!	!	!	!	!	!
0AA/	-tis	1A\	-tis	.	2E/	-cté	1c\	-cté	.	2a\	-tis,
!	!	!	!	!	!LO:TX:t=P:problem=kreska pseudotaktowa	!	!	!	!	!	!
.	.	.	.	.	2E/	Pau-	.	.	.	2e/	S(an)-
!	!	!	!	!	!	!	!LO:TX:t=P:problem=kreska pseudotaktowa	!	!	!	!
.	.	00r	.	.	2.c\	-le	1A/	Pau-	.	2e,</	-cte
!	!	!	!	!	!	!	!	!	!	!LO:TX:t=P:problem=kreska pseudotaktowa	!
.	.	.	.	.	.	.	.	.	.	2e/	Pau-
.	.	.	.	.	4c\	a-	.	.	.	.	.
=14-	=14-	=14-	=14-	=14-	=14-	=14-	=14-	=14-	=14-	=14-	=14-
00r	.	.	.	.	2c\	-po-	2e\	-le	.	2.gny/	-le
!	!	!	!	!	!LO:TX:t=P:problem=kreska pseudotaktowa	!	!	!	!	!	!
.	.	.	.	.	2c\	-ſto-	2e\	a-	.	.	.
.	.	.	.	.	.	.	.	.	.	4g/	a-
.	.	.	.	.	2B,<\	-le	2d\	-po-	.	2g/	-po-
!	!	!	!	!	!	!	!LO:TX:t=P:problem=kreska pseudotaktowa	!	!	!LO:TX:t=P:problem=kreska pseudotaktowa	!
.	.	.	.	.	2e\	Prae-	2c\	-[[sto-	.	2g/	-ſto-
=15-	=15-	=15-	=15-	=15-	=15-	=15-	=15-	=15-	=15-	=15-	=15-
.	.	.	.	.	2d\	-di-	2f\	-le]]	.	2a\	-le
!	!	!	!	!	!LO:TX:t=P:problem=kreska pseudotaktowa	!	!	!	!	!LO:TX:t=P:problem=kreska pseudotaktowa	!
.	.	.	.	.	2A/	-ca-	2e\	prae-	.	2cc\	prae-
!	!	!	!	!	!LO:TX:a:t=10	!	!	!	!	!	!
.	.	1rA	.	.	2.d\	-tor	2f\	-di-	.	4b\	-di-
.	.	.	.	.	.	.	.	.	.	4a\	.
!	!	!	!	!	!	!	!	!	!	!LO:TX:a:t=15	!
.	.	.	.	.	.	.	2f\	-ca-	.	1a\	-ca-
.	.	.	.	.	4c\	.	.	.	.	.	.
=16-	=16-	=16-	=16-	=16-	=16-	=16-	=16-	=16-	=16-	=16-	=16-
!LO:TX:t=P:problem=kreska pseudotaktowa	!	!	!	!	!	!	!LO:TX:t=P:problem=kreska pseudotaktowa	!	!	!	!
1rD	.	1E/	S(an)-	.	4B\	.	1e\	-tor	.	.	.
.	.	.	.	.	4A\	.	.	.	.	.	.
!	!	!	!	!	!LO:TX:t=P:problem=kreska pseudotaktowa	!	!	!	!	!LO:TX:t=P:problem=♯ below	!
.	.	.	.	.	2B\	.	.	.	.	2g#X/	.
!	!	!	!	!	!	!	!	!	!	!LO:TX:t=P:problem=kreska pseudotaktowa	!
1AA/	S(an)-	2E/	-cte	.	2c\	Ve-	1e\	Ve-	.	0a\	-tor
!	!	!LO:TX:t=P:problem=kreska pseudotaktowa	!	!	!LO:TX:t=P:problem=kreska pseudotaktowa	!	!	!	!	!	!
!	!	!	!	!	!LO:LB:g=original	!	!	!	!	!	!
.	.	2E/	Pau-	.	2c\	-ri-	.	.	.	.	.
=17-	=17-	=17-	=17-	=17-	=17-	=17-	=17-	=17-	=17-	=17-	=17-
2AA/	-cte	2.c\	-le	.	2A/	-ta-	2e\	-ri-	.	.	.
!LO:TX:t=P:problem=kreska pseudotaktowa	!	!	!	!	!LO:TX:t=P:problem=kreska pseudotaktowa	!	!	!	!	!	!
2AA/	Pau-	.	.	.	2A/	-tis	(1f\	-ta-	.	.	.
!	!	!LO:TX:t=P:problem=kreska pseudotaktowa	!	!	!	!	!	!	!	!	!
.	.	4c\	a-	.	.	.	.	.	.	.	.
!	!	!	!	!	!	!	!	!	!	!LO:TX:a:t=3	!
2C/	-le	2c\	-po-	.	2G/	S(an)-	.	.	.	0rg	.
!	!	!LO:TX:t=P:problem=kreska pseudotaktowa	!	!	!LO:TX:t=P:problem=kreska pseudotaktowa	!	!LO:TX:t=P:problem=kreska pseudotaktowa	!	!	!	!
2C/	a-	2c\	-ſto-	.	2G/	-cte	2e\)	.	.	.	.
=18-	=18-	=18-	=18-	=18-	=18-	=18-	=18-	=18-	=18-	=18-	=18-
2.GG/	-po-	2B\	-le	.	2G/	Pau-	2d\	-tis.	.	.	.
.	.	2B\	Prae-	.	1d\	-le	2g\	S(an)-	.	.	.
!LO:TX:t=P:problem=kreska pseudotaktowa	!	!	!	!	!	!	!	!	!	!	!
4GG/	-sto-	.	.	.	.	.	.	.	.	.	.
!	!	!	!	!	!	!	!	!	!	!LO:TX:t=P:problem=kreska pseudotaktowa	!
2D/	-le	2A/	-di-	.	.	.	2f\	-cté	.	1r	.
!LO:TX:t=P:problem=kreska pseudotaktowa	!	!LO:TX:t=P::problem=kreska pseudotaktowa&colon;między nutą a kropką	!	!	!LO:TX:t=P:problem=kreska pseudotaktowa	!	!LO:TX:t=P:problem=kreska pseudotaktowa	!	!	!	!
2E\	Prae-	2.c\	-ca-	.	2G/	a-	2e\	[[Pau-	.	.	.
=19-	=19-	=19-	=19-	=19-	=19-	=19-	=19-	=19-	=19-	=19-	=19-
2F\	-di-	.	.	.	2A/	-po-	[2c/	-le]]	.	2r	.
.	.	4B\	.	.	.	.	.	.	.	.	.
*	*	*	*	*	*	*	*	*	*	*	*ij
4F\	-ca-	4A\	.	.	1c\	.	2c/]	.	.	2f/	S(an)-
!LO:TX:t=P:problem=kreska pseudotaktowa	!	!	!	!	!	!	!	!	!	!	!
4E\	.	4G\	.	.	.	.	.	.	.	.	.
!	!	!LO:TX:t=P:problem=kreska pseudotaktowa	!	!	!	!	!	!	!	!	!
1D\	.	1F/	.	.	.	.	2d\	a-	.	2f/	-cte
*	*	*	*	*	*	*	*custos:e	*	*	*	*
!	!	!	!	!	!LO:TX:t=P:problem=kreska pseudotaktowa	!	!	!	!	!LO:TX:t=P:problem=kreska pseudotaktowa	!
.	.	.	.	.	2B\	-ſto-	2f\	-po-	.	2d/	Pau-
=20-	=20-	=20-	=20-	=20-	=20-	=20-	=20-	=20-	=20-	=20-	=20-
!	!	!	!	!	!	!	!LO:LB:g=original	!	!	!	!
2C/	-tor	2G/	-tor	.	2c\	-le	2e\	-ſto-	.	1.gny\	-le
!LO:TX:t=P:problem=kreska pseudotaktowa	!	!	!	!	!LO:TX:t=P:problem=kreska pseudotaktowa	!	!LO:TX:t=P:problem=kreska pseudotaktowa	!	!	!	!
2C/	Ve-	2c\	Ve-	.	2G/	Prae-	2e\	-le	.	.	.
1GG/	-ri-	2B\	-ri-	.	1G/	-di-	2.d\	prae-	.	.	.
!	!	!LO:TX:t=P:problem=kreska pseudotaktowa	!	!	!	!	!	!	!	!LO:TX:t=P:problem=kreska pseudotaktowa	!
.	.	2B\	-ta-	.	.	.	.	.	.	2g/	a-
.	.	.	.	.	.	.	4d\	-di-	.	.	.
=21-	=21-	=21-	=21-	=21-	=21-	=21-	=21-	=21-	=21-	=21-	=21-
2D/	-ta-	2A\	-tis	.	2F/	-ca-	2d\	-ca-	.	2a\	-po-
!LO:TX:t=P:problem=kreska pseudotaktowa	!	!LO:TX:t=P:problem=kreska pseudotaktowa	!	!	!LO:TX:t=P:problem=kreska pseudotaktowa	!	!LO:TX:t=P:problem=kreska pseudotaktowa	!	!	!	!
2AA/	-tis	2A/	S(an)-	.	2E/	-tor	2c/	-tor	.	2a\	-ſto-
4AA/	Prae-	2A/	-ctè	.	1e\	Prae-	4c\	Ve-	.	2cc\	-le
4BB/	.	.	.	.	.	.	4d\	.	.	.	.
!	!	!LO:TX:t=P:problem=kreska pseudotaktowa	!	!	!	!	!	!	!	!LO:TX:t=P:problem=kreska pseudotaktowa	!
4C/	.	2G/	a-	.	.	.	4e\	.	.	2cc\	prae-
!	!	!	!	!	!	!	!LO:TX:t=P:problem=kreska pseudotaktowa	!	!	!	!
4D/	.	.	.	.	.	.	4f\	.	.	.	.
=22-	=22-	=22-	=22-	=22-	=22-	=22-	=22-	=22-	=22-	=22-	=22-
4E\	.	2.G/	-po-	.	2e\	-di-	2.g\	.	.	2cc\	-di-
4F\	.	.	.	.	.	.	.	.	.	.	.
!LO:TX:t=P::problem=kreska pseudotaktowa&colon;między nutą a kropką	!	!	!	!	!LO:TX:t=P:problem=kreska pseudotaktowa	!	!	!	!	!	!
2.G\	.	.	.	.	2d\	-ca-	.	.	.	1b\	-ca-
!	!	!LO:TX:t=P:problem=kreska pseudotaktowa	!	!	!	!	!	!	!	!	!
.	.	4G/	-ſto:-	.	.	.	8f\L	.	.	.	.
!	!	!	!	!	!	!	!LO:TX:t=P:problem=kreska pseudotaktowa	!	!	!	!
.	.	.	.	.	.	.	8e\J	.	.	.	.
!	!	!LO:LB:g=original	!	!	!	!	!	!	!	!	!
.	.	2B\	-le	.	1G/	-tor	2d\	ri-	.	.	.
4F\	.	.	.	.	.	.	.	.	.	.	.
!	!	!LO:TX:t=P:problem=kreska pseudotaktowa	!	!	!	!	!	!	!	!	!
4E\	.	2B\	Prae-	.	.	.	2e\	-ta-	.	1g\	-tor
*	*	*	*	*	*	*	*	*	*	*	*Xij
4D\	-di-	.	.	.	.	.	.	.	.	.	.
=23-	=23-	=23-	=23-	=23-	=23-	=23-	=23-	=23-	=23-	=23-	=23-
!	!	!	!	!	!	!	!LO:TX:b:t=15	!	!	!	!
2C/	-ca-	2c\	-di-	.	2G/	ve-	1.e\	-tis	.	.	.
!	!	!	!	!	!	!	!	!	!	!LO:LB:g=original	!
!LO:TX:t=P:problem=kreska pseudotaktowa	!	!LO:TX:t=P:problem=kreska pseudotaktowa	!	!	!LO:TX:t=P:problem=kreska pseudotaktowa	!	!	!	!	!LO:TX:t=P::problem=kreska pseudotaktowa&colon;między nutą a kropką	!
2C/	-tor	2G/	-ca-	.	2E/	-ri-	.	.	.	2.cc\	Ve-
4AA/	Ve-	2c\	-tor	.	2A/	-ta-	.	.	.	.	.
4BB/	.	.	.	.	.	.	.	.	.	4b\	-ri-
!	!	!	!	!	!LO:TX:t=P:problem=kreska pseudotaktowa	!	!LO:TX:t=P:problem=kreska pseudotaktowa	!	!	!	!
4C/	-ri-	2c\	ve-	.	2A/	-tis	2e\	Et	.	1a\	-ta-
4AA/	.	.	.	.	.	.	.	.	.	.	.
=24-	=24-	=24-	=24-	=24-	=24-	=24-	=24-	=24-	=24-	=24-	=24-
1E\	-ta-	2B\	-ri-	.	2r	.	1.e\	Do-	.	.	.
!	!	!LO:TX:t=P:problem=kreska pseudotaktowa	!	!	!LO:TX:t=P:problem=kreska pseudotaktowa	!	!	!	!	!LO:TX:t=P:problem=kreska pseudotaktowa	!
.	.	2B\	-ta-	.	2B\	et	.	.	.	2g/	.
!LO:TX:t=P:problem=kreska pseudotaktowa	!	!	!	!	!	!	!	!	!	!	!
1AA/	-tis	1A\	-tis	.	1.c\	Do-	.	.	.	2a\	-tis
!	!	!	!	!	!	!	!LO:TX:t=P:problem=kreska pseudotaktowa	!	!	!	!
.	.	.	.	.	.	.	2c/	-ctor	.	2e/	et
=25-	=25-	=25-	=25-	=25-	=25-	=25-	=25-	=25-	=25-	=25-	=25-
1r	.	2F/	et	.	.	.	2f\	gen-	.	2a\	Do-
!	!	!LO:TX:t=P:problem=kreska pseudotaktowa	!	!	!LO:TX:a:t=19	!	!	!	!	!	!
.	.	2G/	do-	.	2B\	.	2d\	-ti-	.	1g\	-ctor
!	!	!	!	!	!LO:TX:t=P:problem=kreska pseudotaktowa	!	!LO:TX:t=P:problem=kreska pseudotaktowa	!	!	!	!
2r	.	2C/	-ctor	.	1c\	-ctor	1e\	-u(m)	.	.	.
!LO:TX:t=P:problem=kreska pseudotaktowa	!	!LO:TX:t=P:problem=kreska pseudotaktowa	!	!	!	!	!	!	!	!	!
2A\	et	2c\	gen-	.	.	.	.	.	.	4r	.
!	!	!	!	!	!	!	!	!	!	!LO:TX:t=P::problem=kreska pseudotaktowa&colon;między nutą a kropką	!
.	.	.	.	.	.	.	.	.	.	2.a\	et
=26-	=26-	=26-	=26-	=26-	=26-	=26-	=26-	=26-	=26-	=26-	=26-
!	!	!	!	!	!LO:LB:g=original	!	!	!	!	!	!
2F\	do-	4d\	-ti-	.	1r	.	2f\	et	.	.	.
.	.	2c\	-u(m)	.	.	.	.	.	.	.	.
!	!	!	!	!	!	!	!LO:TX:t=P:problem=kreska pseudotaktowa	!	!	!	!
2G\	.	.	.	.	.	.	2d\	Do-	.	1g\	Do-
!	!	!LO:TX:t=P:problem=kreska pseudotaktowa	!	!	!	!	!	!	!	!	!
.	.	4B\	et	.	.	.	.	.	.	.	.
!LO:TX:t=P:problem=kreska pseudotaktowa	!	!	!	!	!	!	!	!	!	!	!
1C/	-ctor	2c\	do-	.	2r	.	2e\	-ctor	.	.	.
!	!	!	!	!	!LO:TX:t=P:problem=kreska pseudotaktowa	!	!	!	!	!	!
.	.	2c\	-ctor	.	2e\	et	1g\	gen-	.	1cc\	-ctor
=27-	=27-	=27-	=27-	=27-	=27-	=27-	=27-	=27-	=27-	=27-	=27-
1r	.	2e\	Gen-	.	(2c\	Do-	.	.	.	.	.
!	!	!LO:TX:t=P:problem=kreska pseudotaktowa	!	!	!	!	!LO:TX:t=P:problem=kreska pseudotaktowa	!	!	!LO:TX:t=P:problem=kreska pseudotaktowa	!
.	.	2d\	-ti-	.	2d\)	.	2f\	-ti-	.	2a\	gen-
!	!	!LO:TX:t=P:problem=kreska pseudotaktowa	!	!	!	!	!	!	!	!	!
2r	.	1d\	-(um)	.	2G/	-ctor	2g\	-u(m)	.	2b\	-ti-
!LO:TX:t=P::problem=kreska pseudotaktowa&colon;między nutą a kropką	!	!	!	!	!LO:TX:t=P::problem=kreska pseudotaktowa&colon;między nutą a kropką	!	!LO:TX:t=P:problem=kreska pseudotaktowa	!	!	!	!
2.G\	prae-	.	.	.	2.B\	gen-	2d\	et	.	2g/	-u(m)
=28-	=28-	=28-	=28-	=28-	=28-	=28-	=28-	=28-	=28-	=28-	=28-
!	!	!LO:TX:a:t=20	!	!	!	!	!	!	!	!	!
.	.	0r	.	.	.	.	2.e\	Do-	.	1r	.
4E\	-di-	.	.	.	4G/	-ti-	.	.	.	.	.
!LO:TX:t=P:problem=kreska pseudotaktowa	!	!	!	!	!LO:TX:t=P:problem=kreska pseudotaktowa	!	!	!	!	!	!
2A\	-ca-	.	.	.	2c\	-u(m)	.	.	.	.	.
!	!	!	!	!	!	!	!LO:TX:t=P:problem=kreska pseudotaktowa	!	!	!	!
.	.	.	.	.	.	.	4c\	-ctor	.	.	.
*	*	*	*	*	*	*ij	*	*	*	*	*
2G\	-tor	.	.	.	2B\	et	4d\	gen-	.	2r	.
.	.	.	.	.	.	.	2e\	.	.	.	.
!LO:TX:t=P:problem=kreska pseudotaktowa	!	!	!	!	!LO:TX:a:t=26	!	!	!	!	!LO:TX:t=P::problem=kreska pseudotaktowa&colon;między nutą a kropką	!
*	*	*	*	*	*	*	*	*	*	*	*ij
2F\	et	.	.	.	2A/	Do-	.	.	.	2.a\	et
!	!	!	!	!	!	!	!LO:TX:t=P:problem=kreska pseudotaktowa	!	!	!	!
.	.	.	.	.	.	.	4d\	-ti-	.	.	.
=29-	=29-	=29-	=29-	=29-	=29-	=29-	=29-	=29-	=29-	=29-	=29-
2E\	do-	2rc	.	.	2B/	-ctor	2e\	-u(m)	.	.	.
.	.	.	.	.	.	.	.	.	.	4g\	Do-
!LO:TX:t=P:problem=kreska pseudotaktowa	!	!	!	!	!LO:TX:t=P::problem=kreska pseudotaktowa&colon;między nutą a kropką	!LO:LB:g=original	!	!	!	!LO:TX:a:t=26	!
2AA/	-ctor	2.A/	in-	.	2.e\	gen-	2c/	[[pro	in-	2cc\	-ctor
2.C/	gen-	.	.	.	.	.	2c/	no-	-ter-	2cc\	gen-
.	.	4G/	-ter-	.	4e\	-ti-	.	.	.	.	.
!	!	!LO:TX:t=P:problem=kreska pseudotaktowa	!	!	!LO:TX:t=P:problem=kreska pseudotaktowa	!	!LO:TX:t=P:problem=kreska pseudotaktowa	!	!	!	!
.	.	2c\	-ce-	.	2E/	-u(m)	2e\	-bis]]	-ce-	2g/	-ti-
*	*	*	*	*	*	*Xij	*	*	*	*	*
!LO:TX:t=P:problem=kreska pseudotaktowa	!	!	!	!	!	!	!	!	!	!	!
4C/	-ti-	.	.	.	.	.	.	.	.	.	.
=30-	=30-	=30-	=30-	=30-	=30-	=30-	=30-	=30-	=30-	=30-	=30-
!	!	!	!	!	!	!	!LO:TX:t=P:problem=kreska pseudotaktowa	!	!	!LO:TX:t=P:problem=kreska pseudotaktowa	!
2GG/	-(um)	2B\	-de	.	4G/	in-	1d\	.	-de	1g\	-u(m)
*	*	*	*	*	*	*	*	*	*	*	*Xij
.	.	.	.	.	2G/	-ter-	.	.	.	.	.
!LO:TX:t=P::problem=kreska pseudotaktowa&colon;między nutą a kropką	!	!LO:TX:t=P:problem=kreska pseudotaktowa	!	!	!	!	!	!	!	!	!
2.G\	in-	2B\	in-	.	.	.	.	.	.	.	.
!	!	!	!	!	!LO:TX:t=P:problem=kreska pseudotaktowa	!	!	!	!	!	!
.	.	.	.	.	4G/	-ce-	.	.	.	.	.
.	.	4E/	-ter-	.	4B\	-de	0r	.	.	4r	.
*	*	*	*	*	*	*ij	*	*	*	*	*
4E\	-ter-	2e\	-ce-	.	2c\	in-	.	.	.	4g/	in-
!LO:TX:t=P:problem=kreska pseudotaktowa	!	!	!	!	!	!	!	!	!	!	!
2A\	-ce-	.	.	.	.	.	.	.	.	4e/	-ter-
!	!	!LO:TX:t=P:problem=kreska pseudotaktowa	!	!	!LO:TX:t=P:problem=kreska pseudotaktowa	!	!	!	!	!LO:TX:t=P:problem=kreska pseudotaktowa	!
.	.	4c\	.	.	4A\	-ter-	.	.	.	4f/	.
=31-	=31-	=31-	=31-	=31-	=31-	=31-	=31-	=31-	=31-	=31-	=31-
2G/	-de	4d\	.	.	2B\	-ce-	.	.	.	2g/	.
.	.	4e\	.	.	.	.	.	.	.	.	.
!LO:TX:t=P:problem=kreska pseudotaktowa	!	!LO:TX:t=P:problem=kreska pseudotaktowa	!	!	!	!	!	!	!	!	!
2F\	pro	2A/	-de	.	4c\	-de	.	.	.	1a\	-ce-
*	*	*	*	*	*	*Xij	*	*	*	*	*
!	!	!	!	!	!LO:TX:t=P:problem=kreska pseudotaktowa	!	!	!	!	!	!
.	.	.	.	.	4d\	pro	.	.	.	.	.
!	!	!LO:LB:g=original	!	!	!	!	!	!	!	!	!
2E\	no-	2B\	in-	.	1e\	no-	2re	.	.	.	.
!LO:TX:t=P:problem=kreska pseudotaktowa	!	!LO:TX:t=P:problem=kreska pseudotaktowa	!	!	!	!	!LO:TX:t=P:problem=kreska pseudotaktowa	!	!	!LO:TX:t=P:problem=kreska pseudotaktowa	!
2E\	-bis	2B\	-ter-	.	.	.	2e\	in-	.	2g/	.
=32-	=32-	=32-	=32-	=32-	=32-	=32-	=32-	=32-	=32-	=32-	=32-
!	!	!	!	!	!LO:TX:t=P:problem=kreska pseudotaktowa	!	!	!	!	!	!
2r	.	2.c\	-ce-	.	1A\	-bis	1e\	-ter-	.	2a\	-de
2A\	in-	.	.	.	.	.	.	.	.	1a\	pro
!	!	!LO:TX:t=P:problem=kreska pseudotaktowa	!	!	!	!	!	!	!	!	!
.	.	4B\	.	.	.	.	.	.	.	.	.
!LO:TX:t=P:problem=kreska pseudotaktowa	!	!	!	!	!	!	!	!	!	!	!
*	*	*	*	*	*	*ij	*	*	*	*	*
1F\	-ter-	4A/	.	.	1c\	pro	0f\	-ce-	.	.	.
.	.	4G/	.	.	.	.	.	.	.	.	.
.	.	4F/	.	.	.	.	.	.	.	[2.a\	no
!	!	!LO:TX:t=P:problem=kreska pseudotaktowa	!	!	!	!	!	!	!	!	!
.	.	4G/	.	.	.	.	.	.	.	.	.
=33-	=33-	=33-	=33-	=33-	=33-	=33-	=33-	=33-	=33-	=33-	=33-
1D\	-ce-	2A\	.	.	1F/	no-	.	.	.	.	.
.	.	.	.	.	.	.	.	.	.	4a\]	.
!	!	!	!	!	!	!	!	!	!	!LO:LB:g=original	!
!	!	!LO:TX:t=P:problem=kreska pseudotaktowa	!	!	!	!	!	!	!	!LO:TX:t=P:problem=kreska pseudotaktowa	!
.	.	2B\	.	.	.	.	.	.	.	2d/	bis
!LO:TX:t=P:problem=kreska pseudotaktowa	!	!	!	!	!LO:TX:t=P:problem=kreska pseudotaktowa	!	!	!	!	!	!
1C/	-de.	2c\	-de	.	1G/	-bis	2e\	-de	.	2re	.
*	*	*	*	*	*	*Xij	*	*	*	*	*
!	!	!	!	!	!	!	!LO:TX:t=P:problem=kreska pseudotaktowa	!	!	!LO:TX:t=P:problem=kreska pseudotaktowa	!
.	.	2e\	pro	.	.	.	2c/	pro	.	2g/	pro
=34-	=34-	=34-	=34-	=34-	=34-	=34-	=34-	=34-	=34-	=34-	=34-
!LO:LB:g=original	!	!LO:TX:t=P:problem=kreska pseudotaktowa	!	!	!LO:TX:a:t=2	!	!	!	!	!	!
0r	.	1e\	no-	.	0rc	.	1g\	no-	.	2cc\	no-
!	!	!	!	!	!	!	!	!	!	!LO:TX:t=P:problem=kreska pseudotaktowa	!
.	.	.	.	.	.	.	.	.	.	2b\	-bis
.	.	2A/	-bis	.	.	.	2e\	-bis	.	2cc\	ad
!	!	!	!	!	!	!	!LO:TX:t=P:problem=kreska pseudotaktowa	!	!	!	!
.	.	2c\	ad	.	.	.	2e\	ad	.	1a\	D(o-
=35-	=35-	=35-	=35-	=35-	=35-	=35-	=35-	=35-	=35-	=35-	=35-
!LO:TX:t=P:problem=kreska pseudotaktowa	!	!	!	!	!	!	!	!	!	!	!
1r	.	2.B\	Do-	.	2r	.	2.d\	Do-	.	.	.
!	!	!	!	!	!	!	!	!	!	!LO:TX:t=P:problem=♯ above	!
.	.	.	.	.	1d\	ad	.	.	.	2g#X/	-mi)-
!	!	!LO:TX:t=P:problem=kreska pseudotaktowa	!	!	!	!	!	!	!	!	!
.	.	4B\	-mi-	.	.	.	4d\	-mi-	.	.	.
!	!	!LO:TX:t=P:problem=kreska pseudotaktowa	!	!	!	!	!	!	!	!LO:TX:t=P:problem=kreska pseudotaktowa	!
2r	.	1A\	-nu(m).	.	.	.	2e\	-nu(m)	.	1a\	-nu(m).
*	*	*	*	*	*custos:B	*	*	*	*	*	*
!LO:TX:t=P:problem=kreska pseudotaktowa	!	!	!	!	!	!	!LO:TX:t=P::problem=kreska pseudotaktowa&colon;między nutą a kropką	!	!	!	!
*	*	*	*	*	*	*	*	*ij	*	*	*
2A\	in-	.	.	.	1c\	Do-	2.e\	in-	.	.	.
=36-	=36-	=36-	=36-	=36-	=36-	=36-	=36-	=36-	=36-	=36-	=36-
!	!	!	!	!	!	!	!	!	!	!LO:TX:a:t=16	!
2A\	-ter-	0rA	.	.	.	.	.	.	.	0r	.
.	.	.	.	.	.	.	4e\	-ter-	.	.	.
!	!	!	!	!	!LO:TX:t=P:problem=kreska pseudotaktowa	!	!LO:TX:t=P:problem=kreska pseudotaktowa	!	!	!	!
!	!	!	!	!	!LO:LB:g=original	!	!	!	!	!	!
2G\	-ce-	.	.	.	2B\	mi-	2e\	-ce-	.	.	.
2F\	-de	.	.	.	2c\	-nu(m)	2A/	-de	.	.	.
!LO:TX:t=P:problem=kreska pseudotaktowa	!	!	!	!	!	!	!	!	!	!	!
*	*	*	*	*	*	*ij	*	*	*	*	*
2E\	pro	.	.	.	2c\	ad	1e\	pro	.	.	.
=37-	=37-	=37-	=37-	=37-	=37-	=37-	=37-	=37-	=37-	=37-	=37-
1F\	no-	1rA	.	.	2A/	Do-	.	.	.	2r	.
!	!	!	!	!	!	!	!LO:TX:t=P:problem=kreska pseudotaktowa	!	!	!LO:TX:t=P:problem=kreska pseudotaktowa	!
.	.	.	.	.	2A/	-mi-	2d\	no-	.	2a\	qui
!	!	!	!	!	!LO:TX:t=P:problem=kreska pseudotaktowa	!	!	!	!	!LO:TX:t=P:problem=♯ below	!
2E\	-bis	2r	.	.	1B\	-nu(m)	1e\	-bis	.	2g#X/	te
*	*	*	*	*	*	*Xij	*	*	*	*	*
!LO:TX:t=P:problem=kreska pseudotaktowa	!	!LO:TX:t=P:problem=kreska pseudotaktowa	!	!	!	!	!	!	!	!	!
2E\	ad	2B\	in-	.	.	.	.	.	.	2g#/	e-
=38-	=38-	=38-	=38-	=38-	=38-	=38-	=38-	=38-	=38-	=38-	=38-
2A\	Do-	2c\	-ter-	.	2rF	.	2e\	ad	.	2a\	-le-
!	!	!	!	!	!	!	!LO:TX:t=P:problem=kreska pseudotaktowa	!	!	!LO:TX:t=P:problem=kreska pseudotaktowa	!
2D/	-mi-	2d\	-ce-	.	2A/	qui	2f\	Do-	.	2a\	-git
2E\	-nu(m)	2B\	-de	.	2G#X/	te	2e\	-mi-	.	1r	.
!LO:TX:t=P:problem=kreska pseudotaktowa	!	!LO:TX:t=P:problem=kreska pseudotaktowa	!	!	!LO:TX:t=P:problem=kreska pseudotaktowa	!	!LO:TX:t=P:problem=kreska pseudotaktowa	!	!	!	!
2E/	qui	2B\	Pro	.	2G#/	e-	2e\	-nu(m)	.	.	.
*	*	*	*	*	*	*	*	*Xij	*	*	*
=39-	=39-	=39-	=39-	=39-	=39-	=39-	=39-	=39-	=39-	=39-	=39-
!	!	!	!	!	!LO:TX:t=P:problem=kreska pseudotaktowa	!	!	!	!	!	!
4C/	te	2E/	no-	.	0A\	-le-	2e\	qui	.	2rb	.
4C/	e-	.	.	.	.	.	.	.	.	.	.
!LO:TX:t=P:problem=kreska pseudotaktowa	!	!	!	!	!	!	!LO:TX:t=P:problem=kreska pseudotaktowa	!	!	!LO:TX:t=P:problem=kreska pseudotaktowa	!
*	*	*	*	*	*	*	*	*	*	*	*ij
2D/	-le-	2F/	-bis	.	.	.	2d\	te	.	2dd\	qui
!	!	!LO:TX:t=P:problem=kreska pseudotaktowa	!	!	!	!	!	!	!	!	!
1AA/	-git	1E/	ad	.	.	.	1e\	e-	.	2cc\	te
.	.	.	.	.	.	.	.	.	.	2cc\	e-
=40-	=40-	=40-	=40-	=40-	=40-	=40-	=40-	=40-	=40-	=40-	=40-
2r	.	2.A/	D(o-	.	2D,</	-git	1f\	-le-	.	2dd\	-le-
!LO:TX:t=P:problem=kreska pseudotaktowa	!	!	!	!	!	!	!	!	!	!LO:TX:t=P:problem=kreska pseudotaktowa	!
2C/	in-	.	.	.	1d\	in-	.	.	.	2a,<\	-git
*	*	*	*	*	*	*	*	*	*	*	*Xij
.	.	4A/	-mi)-	.	.	.	.	.	.	.	.
!	!	!LO:TX:t=P:problem=kreska pseudotaktowa	!	!	!	!	!LO:TX:t=P:problem=kreska pseudotaktowa	!	!	!	!
2G\	-ter-	1G/	-nu(m).	.	.	.	1g\	-git	.	2b\	in-
!	!	!	!	!	!LO:TX:t=P:problem=kreska pseudotaktowa	!	!	!	!	!LO:TX:t=P:problem=kreska pseudotaktowa	!
2C/	-ce-	.	.	.	2e\	-ter-	.	.	.	2cc\	-ter-
=41-	=41-	=41-	=41-	=41-	=41-	=41-	=41-	=41-	=41-	=41-	=41-
!	!	!	!	!	!	!	!LO:LB:g=original	!	!	!	!
2G\	-de	1r	.	.	4e\	-ce-	2g\	in-	.	2b\	-ce-
.	.	.	.	.	(2d\	-de	.	.	.	.	.
!LO:TX:t=P:problem=kreska pseudotaktowa	!	!	!	!	!	!	!LO:TX:t=P:problem=kreska pseudotaktowa	!	!	!LO:TX:t=P:problem=kreska pseudotaktowa	!
2A\	pro	.	.	.	.	.	2e\	-ter-	.	2a\	-de
!	!	!	!	!	!LO:TX:t=P:problem=kreska pseudotaktowa	!	!	!	!	!	!
.	.	.	.	.	4c\)	.	.	.	.	.	.
1D\	no-	2r	.	.	2d\	pro	2f\	-ce-	.	2a\	pro
!	!	!	!	!	!	!	!LO:TX:t=P:problem=kreska pseudotaktowa	!	!	!LO:TX:t=P:problem=kreska pseudotaktowa	!
.	.	1A\	qui	.	2f\	no-	2d\	-de	.	2a\	pro
=42-	=42-	=42-	=42-	=42-	=42-	=42-	=42-	=42-	=42-	=42-	=42-
!LO:TX:t=P:problem=kreska pseudotaktowa	!	!	!	!	!LO:TX:t=P:problem=kreska pseudotaktowa	!	!	!	!	!	!
1AA/	-bis	.	.	.	1e\	-bis	2c/	pro	.	2.cc\	no-
!	!	!LO:LB:g=original	!	!	!	!	!LO:TX:t=P:problem=kreska pseudotaktowa	!	!	!	!
.	.	1c\	te	.	.	.	2A/	no-	.	.	.
!	!	!	!	!	!	!	!	!	!	!LO:TX:t=P:problem=kreska pseudotaktowa	!
.	.	.	.	.	.	.	.	.	.	4b\	-bis
2AA/	ad	.	.	.	2rc	.	2c/	-bis	.	2a\	ad
*	*	*	*	*	*	*	*	*	*	*custos:G	*
!LO:TX:t=P:problem=kreska pseudotaktowa	!	!LO:TX:t=P:problem=kreska pseudotaktowa	!	!	!LO:TX:t=P:problem=kreska pseudotaktowa	!	!LO:TX:t=P:problem=kreska pseudotaktowa	!	!	!	!
2BB/	D(o-	2B\	e-	.	2d\	ad	2d/	ad	.	2gny/	Do-
=43-	=43-	=43-	=43-	=43-	=43-	=43-	=43-	=43-	=43-	=43-	=43-
!	!	!	!	!	!	!	!	!	!	!LO:LB:g=original	!
2C/	-mi)-	1A\	-le-	.	2c\	Do-	4e\	D(o-	.	2g/	-mi-
.	.	.	.	.	.	.	4e\	-mi)-	.	.	.
!	!	!	!	!	!LO:TX:t=P:problem=kreska pseudotaktowa	!	!LO:TX:t=P:problem=kreska pseudotaktowa	!	!	!	!
2D/	-nu(m)	.	.	.	2A/	-mi-	2d\	-nu(m)	.	2f/	-nu(m)
!LO:TX:t=P:problem=kreska pseudotaktowa	!	!	!	!	!	!	!	!	!	!LO:TX:t=P:problem=kreska pseudotaktowa	!
1GG/	qui	2G/	-git	.	1B\	-nu(m)	2d\	qui	.	1g\	qui
!	!	!	!	!	!	!	!LO:TX:t=P:problem=kreska pseudotaktowa	!	!	!	!
*	*	*	*ij	*	*	*	*	*	*	*	*
.	.	1G/	qui	.	.	.	2d\	te	.	.	.
=44-	=44-	=44-	=44-	=44-	=44-	=44-	=44-	=44-	=44-	=44-	=44-
!LO:LB:g=original	!	!	!	!	!	!	!	!	!	!	!
1.C/	te	.	.	.	2c\	qui	2e\	e-	.	1.g\	te
!	!	!LO:TX:t=P:problem=kreska pseudotaktowa	!	!	!	!	!	!	!	!	!
.	.	2G/	te	.	1c\	te	1e\	-le-	.	.	.
!	!	!LO:TX:t=P:problem=kreska pseudotaktowa	!	!	!	!	!	!	!	!	!
.	.	1E/	e-	.	.	.	.	.	.	.	.
!LO:TX:t=P:problem=kreska pseudotaktowa	!	!	!	!	!LO:TX:t=P:problem=kreska pseudotaktowa	!	!LO:TX:t=P:problem=kreska pseudotaktowa	!	!	!	!
2C/	e-	.	.	.	2G/	e-	2c\	-git	.	2e/	e-
=45-	=45-	=45-	=45-	=45-	=45-	=45-	=45-	=45-	=45-	=45-	=45-
1AA/	-le-	1.E/	-le-	.	1c\	-le-	2r	.	.	1a\	-le-
.	.	.	.	.	.	.	2.e\	in-	.	.	.
!LO:TX:t=P:problem=kreska pseudotaktowa	!	!	!	!	!LO:TX:t=P:problem=kreska pseudotaktowa	!	!	!	!	!LO:TX:t=P:problem=kreska pseudotaktowa	!
1E\	-git	.	.	.	1B\	-git	.	.	.	1g#X\	-git
.	.	.	.	.	.	.	4e\	-ter-	.	.	.
!	!	!LO:TX:t=P:problem=kreska pseudotaktowa	!	!	!	!	!LO:TX:t=P:problem=kreska pseudotaktowa	!	!	!	!
.	.	2e\	-git	.	.	.	2e\	-ce-	.	.	.
*	*	*	*Xij	*	*	*	*	*	*	*	*
=46-	=46-	=46-	=46-	=46-	=46-	=46-	=46-	=46-	=46-	=46-	=46-
!	!	!	!	!	!LO:TX:a:t=2	!	!	!	!	!	!
2.A\	in-	2.e\	in-	.	0r	.	1c\	-de	.	2r	.
.	.	.	.	.	.	.	.	.	.	2.a\	in-
!LO:TX:t=P:problem=kreska pseudotaktowa	!	!	!	!	!	!	!	!	!	!	!
4A\	-ter-	4e\	-ter-	.	.	.	.	.	.	.	.
2A\	-ce-	1c\	-ce-	.	.	.	2e\	pro	.	.	.
.	.	.	.	.	.	.	.	.	.	4a\	-ter-
!LO:TX:t=P:problem=kreska pseudotaktowa	!	!	!	!	!	!	!	!	!	!LO:TX:t=P:problem=kreska pseudotaktowa	!
2F\	-de	.	.	.	.	.	1A/	no-	.	2a\	-ce-
=47-	=47-	=47-	=47-	=47-	=47-	=47-	=47-	=47-	=47-	=47-	=47-
!	!	!	!	!	!LO:LB:g=original	!	!	!	!	!	!
2D/	pro	1d\	.	.	2r	.	.	.	.	2f/	-de
!	!	!	!	!	!	!	!LO:TX:t=P:problem=kreska pseudotaktowa	!	!	!	!
1G\	no-	.	.	.	2.B\	in-	2G/	-bis	.	2d/	pro
!	!	!LO:TX:t=P:problem=kreska pseudotaktowa	!	!	!	!	!	!	!	!	!
.	.	1G/	-de	.	.	.	2d\	ad	.	2.gny\	no-
.	.	.	.	.	4B\	-ter-	.	.	.	.	.
!LO:TX:t=P:problem=kreska pseudotaktowa	!	!	!	!	!LO:TX:t=P:problem=kreska pseudotaktowa	!	!	!	!	!	!
2GG/	-bis	.	.	.	2B\	-ce-	1d\	D(o-	.	.	.
!	!	!	!	!	!	!	!	!	!	!LO:TX:t=P:problem=kreska pseudotaktowa	!
.	.	.	.	.	.	.	.	.	.	4a\	.
=48-	=48-	=48-	=48-	=48-	=48-	=48-	=48-	=48-	=48-	=48-	=48-
0r	.	1r	.	.	2G/	-de	.	.	.	2b\	.
!	!	!	!	!	!	!	!LO:TX:t=P:problem=kreska pseudotaktowa	!	!	!LO:TX:t=P:problem=kreska pseudotaktowa	!
.	.	.	.	.	2A/	pro	2d\	-mi)-	.	2e/	-bis
*	*ij	*	*ij	*	*	*	*	*	*	*	*
.	.	2.e\	in-	.	1c\	no-	1A/	-nu(m)	.	2r	.
.	.	.	.	.	.	.	.	.	.	2.a\	in-
!	!	!LO:TX:t=P:problem=kreska pseudotaktowa	!	!	!	!	!	!	!	!	!
.	.	4e\	-ter-	.	.	.	.	.	.	.	.
=49-	=49-	=49-	=49-	=49-	=49-	=49-	=49-	=49-	=49-	=49-	=49-
!	!	!	!	!	!LO:TX:t=P:problem=kreska pseudotaktowa	!	!	!	!	!	!
2.E\	in-	2e\	-ce-	.	1B\	-bis	2r	.	.	.	.
.	.	.	.	.	.	.	.	.	.	4a\	-ter-
*	*	*	*	*	*	*	*	*ij	*	*	*
!	!	!	!	!	!	!	!LO:TX:t=P::problem=kreska pseudotaktowa&colon;między nutą a kropką	!	!	!LO:TX:t=P::problem=kreska pseudotaktowa&colon;między nutą a kropką	!
.	.	1B\	-de	.	.	.	2.e\	in-	.	2.g/	-ce-
*	*	*	*Xij	*	*	*	*	*	*	*	*
!LO:TX:t=P:problem=kreska pseudotaktowa	!	!	!	!	!	!	!	!	!	!	!
4E\	-ter-	.	.	.	.	.	.	.	.	.	.
1E\	-ce-	.	.	.	0rd	.	.	.	.	.	.
.	.	.	.	.	.	.	4e\	-ter-	.	4a\	.
!	!	!	!	!	!	!	!LO:LB:g=original	!	!	!	!
.	.	1e\	pro	.	.	.	1g\	-ce-	.	4b\	.
.	.	.	.	.	.	.	.	.	.	4g/	.
=50-	=50-	=50-	=50-	=50-	=50-	=50-	=50-	=50-	=50-	=50-	=50-
2C/	-de	.	no-	.	.	.	.	.	.	2cc\	-de
!LO:TX:t=P:problem=kreska pseudotaktowa	!	!LO:TX:t=P::problem=kreska pseudotaktowa&colon;między nutą a kropką	!	!	!	!	!	!	!	!LO:TX:t=P::problem=kreska pseudotaktowa&colon;między nutą a kropką	!
2D/	pro	2.d\	.	.	.	.	1f\	-de	.	2.b\	pro
1F\	no-	.	.	.	1re	.	.	.	.	.	.
.	.	4c\	.	.	.	.	.	.	.	4a\	.
!	!	!	!	!	!	!	!LO:TX:t=P:problem=kreska pseudotaktowa	!	!	!	!
.	.	4B\	.	.	.	.	2d\	pro	.	1a\	no-
.	.	4A\	.	.	.	.	.	.	.	.	.
=51-	=51-	=51-	=51-	=51-	=51-	=51-	=51-	=51-	=51-	=51-	=51-
1E\	-bis	1B\	.	.	2rc	.	1e\	no-	.	.	.
*	*Xij	*	*	*	*	*	*	*	*	*	*
!	!	!	!	!	!	!	!	!	!	!LO:TX:t=P:problem=kreska pseudotaktowa	!
!	!	!	!	!	!	!	!	!	!	!LO:TX:t=P:problem=♯ above	!
.	.	.	.	.	1e\	in-	.	.	.	2g#X/	.
!LO:TX:t=P:problem=kreska pseudotaktowa	!	!LO:TX:t=P:problem=kreska pseudotaktowa	!	!	!	!	!	!	!	!LO:TX:t=P:problem=kreska pseudotaktowa	!
1AA/	pro	0A\	-bis	.	.	.	2c/	-bis	.	1a\	-bis
!	!	!	!	!	!LO:TX:t=P:problem=kreska pseudotaktowa	!	!LO:TX:t=P:problem=kreska pseudotaktowa	!	!	!	!
.	.	.	.	.	2e\	-ter-	2c/	ad	.	.	.
=52-	=52-	=52-	=52-	=52-	=52-	=52-	=52-	=52-	=52-	=52-	=52-
!	!	!	!	!	!	!	!	!	!	!LO:LB:g=original	!
1D\	no-	.	.	.	1d\	-ce-	1.f\	D(o-	.	2r	.
!	!	!	!	!	!	!	!	!	!	!LO:TX:t=P:problem=kreska pseudotaktowa	!
.	.	.	.	.	.	.	.	.	.	2a\	ad
!	!	!	!	!	!LO:TX:t=P:problem=kreska pseudotaktowa	!	!	!	!	!	!
2D/	-bis	2d\	ad	.	1A\	-de	.	.	.	1a\	Do-
!LO:TX:t=P:problem=kreska pseudotaktowa	!	!	!	!	!	!	!LO:TX:t=P:problem=kreska pseudotaktowa	!	!	!	!
2F\	ad	2.c\	Do-	.	.	.	2f\	-mi)-	.	.	.
=53-	=53-	=53-	=53-	=53-	=53-	=53-	=53-	=53-	=53-	=53-	=53-
2G\	D(o-	.	.	.	2rc	.	1d\	-nu(m)	.	1gny\	-mi-
*	*	*	*	*	*	*	*	*Xij	*	*	*
*	*	*custos:B	*	*	*	*	*	*	*	*	*
.	.	4B\	.	.	.	.	.	.	.	.	.
!	!	!LO:LB:g=original	!	!	!LO:TX:t=P:problem=niezgodność pionów [brak pauzy 1r]	!	!	!	!	!	!
2G\	-mi)-	4B\	.	.	1ryy	.	.	.	.	.	.
.	.	8A\L	.	.	.	.	.	.	.	.	.
!	!	!LO:TX:t=P:problem=kreska pseudotaktowa	!	!	!	!	!	!	!	!	!
.	.	8B\J	.	.	.	.	.	.	.	.	.
!LO:TX:t=P:problem=kreska pseudotaktowa	!	!	!	!	!	!	!	!	!	!LO:TX:t=P:problem=kreska pseudotaktowa	!
1C/	-nu(m)	2c\	-mi-	.	.	.	2e\	qui	.	1g\	-nu(m)
!	!	!LO:TX:t=P:problem=kreska pseudotaktowa	!	!	!	!	!	!	!	!	!
*	*	*	*	*	*	*ij	*	*	*	*	*
.	.	2G/	-nu(m)	.	2.e\	in-	1c\	te	.	.	.
=54-	=54-	=54-	=54-	=54-	=54-	=54-	=54-	=54-	=54-	=54-	=54-
0r	.	00r	.	.	.	.	.	.	.	2.g\	in-
.	.	.	.	.	4e\	-ter-	.	.	.	.	.
!	!	!	!	!	!LO:TX:t=P:problem=kreska pseudotaktowa	!	!LO:TX:t=P:problem=kreska pseudotaktowa	!	!	!	!
.	.	.	.	.	2e\	-ce-	2c/	e-	.	.	.
.	.	.	.	.	.	.	.	.	.	4g\	-ter-
.	.	.	.	.	2c\	-de	2e\	-le-	.	2cc\	-ce-
*	*	*	*	*	*	*Xij	*	*	*	*	*
!	!	!	!	!	!	!	!	!	!	!LO:TX:t=P::problem=kreska pseudotaktowa&colon;między nutą a kropką	!
.	.	.	.	.	2d\	pro	2f\	-git	.	2.a\	-de
=55-	=55-	=55-	=55-	=55-	=55-	=55-	=55-	=55-	=55-	=55-	=55-
1r	.	.	.	.	1f\	no-	2d\	e-	.	.	.
.	.	.	.	.	.	.	.	.	.	4b\	.
.	.	.	.	.	.	.	1a\	-le-	.	4cc\	.
.	.	.	.	.	.	.	.	.	.	4a\	.
!	!	!	!	!	!LO:TX:t=P:problem=kreska pseudotaktowa	!	!	!	!	!	!
2r	.	.	.	.	0e\	-bis	.	.	.	2cc\	pro
!	!	!	!	!	!	!	!LO:TX:t=P:problem=kreska pseudotaktowa	!	!	!LO:TX:t=P:problem=kreska pseudotaktowa	!
2.E\	in-	.	.	.	.	.	2g\	-git	.	2b\	no-
=56-	=56-	=56-	=56-	=56-	=56-	=56-	=56-	=56-	=56-	=56-	=56-
.	.	2.B\	in-	.	.	.	2re	.	.	4g\	.
4E\	-ter-	.	.	.	.	.	.	.	.	4a\	.
!LO:LB:g=original	!	!	!	!	!	!	!	!	!	!	!
!LO:TX:t=P:problem=kreska pseudotaktowa	!	!	!	!	!	!	!	!	!	!	!
2E\	-ce-	.	.	.	.	.	1g\	ad	.	4b\	.
.	.	4B\	-ter-	.	.	.	.	.	.	4g\	-bis
2C/	-de	2e\	-ce-	.	0rG	.	.	.	.	2cc\	ad
!	!	!LO:TX:t=P:problem=kreska pseudotaktowa	!	!	!	!	!	!	!	!LO:TX:t=P::problem=kreska pseudotaktowa&colon;między nutą a kropką	!
2D/	pro	2d\	-de	.	.	.	1f\	Do-	.	2.b\	Do-
=57-	=57-	=57-	=57-	=57-	=57-	=57-	=57-	=57-	=57-	=57-	=57-
1F\	no-	2d\	[[pro	pro	.	.	.	.	.	.	.
.	.	.	.	.	.	.	.	.	.	4a\	.
!	!	!	!	!	!	!	!LO:TX:t=P:problem=kreska pseudotaktowa	!	!	!	!
.	.	2A/	no-	no-	.	.	2d\	-mi-	.	1a\	.
2E\	-bis	2B\	-bis	-bis	2r	.	1e\	-nu(m)	.	.	.
!	!	!	!	!	!	!	!	!	!	!LO:TX:t=P:problem=kreska pseudotaktowa	!
!LO:TX:t=P:problem=kreska pseudotaktowa	!	!LO:TX:t=P:problem=kreska pseudotaktowa	!	!	!LO:TX:t=P:problem=kreska pseudotaktowa	!	!	!	!	!LO:TX:t=P:problem=♯ above	!
2E\	ad	2B\	pro	ad	2E/	ad	.	.	.	2g#X/	-mi-
=58-	=58-	=58-	=58-	=58-	=58-	=58-	=58-	=58-	=58-	=58-	=58-
!	!	!	!	!	!	!	!	!	!	!LO:TX:t=P:problem=kreska pseudotaktowa	!
2.AA/	D(o-	2.A/	no-	D(o-	2E/	Do-	1c\	qui	.	1a\	-nu(m)
.	.	.	.	.	2E/	-mi-	.	.	.	.	.
!LO:TX:t=P:problem=kreska pseudotaktowa	!	!	!	!	!	!	!	!	!	!	!
4AA/	-mi)-	4A/	.	-mi)-	.	.	.	.	.	.	.
2AA,</	-nu(m)	2.E,</	-bis	-num	2A/	-nu(m)	1.e\	te	.	1cc\	qui
!LO:TX:t=P:problem=kreska pseudotaktowa	!	!	!	!	!LO:TX:t=P:problem=kreska pseudotaktowa	!	!	!	!	!	!
2C/	qui	.	.	.	2G/	q(u)i	.	.	.	.	.
.	.	4E/	ad	qui	.	.	.	.	.	.	.
=59-	=59-	=59-	=59-	=59-	=59-	=59-	=59-	=59-	=59-	=59-	=59-
2C/	te	1.E/	Do-	Te	2G/	te	.	.	.	2cc\	te
2E\	e-	.	.	.	2G/	e-	2e\	e-	.	2b\	e-
1AA/	-le-	.	.	.	1c\	-le-	1e\	-le-	.	1a\	-le-
.	.	2E/	-mi-	ele-	.	.	.	.	.	.	.
=60-	=60-	=60-	=60-	=60-	=60-	=60-	=60-	=60-	=60-	=60-	=60-
0E\;<	-git	0E/	-nu(m)]]	-git.	0B\;;	-git.	0e\;;	-git.	.	0g#X\;;	-git.
==	==	==	==	==	==	==	==	==	==	==	==
*-	*-	*-	*-	*-	*-	*-	*-	*-	*-	*-	*-
!!!system-decoration: [(s1,s2,s3,s4,s5)]
!!!RDF**kern: > = above
!!!RDF**kern: < = below
!!!EED: Andrzej Borzym
!!!EEV: 2021-04-05
!!!ENC: Andrzej Kubiczek
!!!END: 2021-03-11
